docs/img/icons/service/icon-3.svg

<svg width="42" height="42" viewBox="0 0 42 42" fill="none" xmlns="http://www.w3.org/2000/svg">
<path d="M41.8431 20.1747C41.4192 19.1499 40.5105 18.9042 39.8955 18.8454V12.6C39.8955 10.2837 38.0131 8.4 35.6982 8.4H23.1063V5.481C23.7464 4.9056 24.1556 4.0782 24.1556 3.15C24.1556 2.31457 23.8239 1.51335 23.2336 0.922614C22.6432 0.331874 21.8425 0 21.0076 0C20.1727 0 19.372 0.331874 18.7816 0.922614C18.1913 1.51335 17.8596 2.31457 17.8596 3.15C17.8596 4.0782 18.2688 4.9056 18.9089 5.481V8.4H6.31697C4.00215 8.4 2.11965 10.2837 2.11965 12.6V18.8937L1.94756 18.9063C1.41864 18.9445 0.923781 19.1817 0.562478 19.5701C0.201175 19.9585 0.000214578 20.4694 0 21V25.2C0 25.757 0.221108 26.2911 0.614684 26.6849C1.00826 27.0787 1.54206 27.3 2.09866 27.3H2.11965V37.8C2.11965 40.1163 4.00215 42 6.31697 42H35.6982C38.0131 42 39.8955 40.1163 39.8955 37.8V27.3C40.4521 27.3 40.986 27.0787 41.3795 26.6849C41.7731 26.2911 41.9942 25.757 41.9942 25.2V21.1302C42.0184 20.8043 41.9667 20.4772 41.8431 20.1747ZM6.31697 37.8V12.6H35.6982L35.7003 20.9916L35.6982 21V25.2L35.7003 25.2105L35.7024 37.8H6.31697Z" fill="#05A14E"/>
<path d="M13.6624 25.2007C15.4011 25.2007 16.8106 23.3201 16.8106 21.0004C16.8106 18.6806 15.4011 16.8 13.6624 16.8C11.9237 16.8 10.5142 18.6806 10.5142 21.0004C10.5142 23.3201 11.9237 25.2007 13.6624 25.2007Z" fill="#05A14E"/>
<path d="M28.3533 25.2007C30.092 25.2007 31.5015 23.3201 31.5015 21.0004C31.5015 18.6806 30.092 16.8 28.3533 16.8C26.6146 16.8 25.2051 18.6806 25.2051 21.0004C25.2051 23.3201 26.6146 25.2007 28.3533 25.2007Z" fill="#05A14E"/>
<path d="M12.6128 29.4H29.4021V33.6H12.6128V29.4Z" fill="#05A14E"/>
</svg>

<svg width="42" height="42" fill="none" xmlns="http://www.w3.org/2000/svg"><path d="M41.843 20.175c-.424-1.025-1.333-1.27-1.948-1.33V12.6c0-2.316-1.882-4.2-4.197-4.2H23.106V5.481a3.126 3.126 0 001.05-2.331A3.151 3.151 0 0021.008 0a3.147 3.147 0 00-3.148 3.15c0 .928.409 1.756 1.049 2.331V8.4H6.317a4.203 4.203 0 00-4.197 4.2v6.294l-.172.012A2.098 2.098 0 000 21v4.2a2.1 2.1 0 002.099 2.1h.02v10.5c0 2.316 1.883 4.2 4.198 4.2h29.381a4.203 4.203 0 004.197-4.2V27.3a2.098 2.098 0 002.1-2.1v-4.07a2.113 2.113 0 00-.152-.955zM6.317 37.8V12.6h29.381l.002 8.392-.002.008v4.2l.002.01.002 12.59H6.317z" fill="#05A14E"/><path d="M13.662 25.2c1.74 0 3.149-1.88 3.149-4.2 0-2.32-1.41-4.2-3.149-4.2-1.738 0-3.148 1.88-3.148 4.2 0 2.32 1.41 4.2 3.148 4.2zm14.691 0c1.739 0 3.148-1.88 3.148-4.2 0-2.32-1.409-4.2-3.148-4.2-1.738 0-3.148 1.88-3.148 4.2 0 2.32 1.41 4.2 3.148 4.2zm-15.74 4.2h16.79v4.2h-16.79v-4.2z" fill="#05A14E"/></svg>
